app/images/src/icons/fb.svg

<svg width="25" height="25" viewBox="0 0 25 25" fill="none" xmlns="http://www.w3.org/2000/svg">
<path d="M14.2574 8.50384V6.45754C14.2545 6.22202 14.2685 5.9866 14.2993 5.75308C14.3288 5.57922 14.3945 5.41349 14.4922 5.26667C14.5456 5.1818 14.6154 5.10843 14.6974 5.05083C14.7795 4.99324 14.8722 4.95257 14.9702 4.93121C15.2615 4.86372 15.5602 4.83273 15.8592 4.83896H17.939V0.838623H14.7102C12.8484 0.838623 11.5066 1.27472 10.7015 2.1553C9.81411 3.24663 9.37623 4.63526 9.47708 6.03822V8.50384H7.03662V12.5042H9.47708V24.1613H14.3664L14.2574 12.5042H17.4526L17.8719 8.50384H14.2574Z" stroke="white" stroke-width="1.20765" stroke-miterlimit="10"/>
</svg>

<svg width="25" height="25" fill="none" xmlns="http://www.w3.org/2000/svg"><path d="M14.257 8.504V6.458a5.035 5.035 0 01.042-.705c.03-.174.096-.34.193-.486a.756.756 0 01.478-.336c.291-.067.59-.098.89-.092h2.079v-4H14.71c-1.862 0-3.203.436-4.009 1.316a5.527 5.527 0 00-1.224 3.883v2.466h-2.44v4h2.44v11.657h4.89l-.11-11.657h3.196l.419-4h-3.615z" stroke="#fff" stroke-width="1.208" stroke-miterlimit="10"/></svg>
